packages/components/src/components/icon/common/ic-star.svg

<svg width="10" height="10" viewBox="0 0 10 10" xmlns="http://www.w3.org/2000/svg">
<path fill="var(--fill-color1)" d="M4.55419 0.372056C4.69451 -0.0598088 5.30549 -0.0598093 5.44581 0.372055L6.24184 2.822C6.3046 3.01514 6.48458 3.1459 6.68765 3.1459H9.26367C9.71776 3.1459 9.90656 3.72697 9.5392 3.99387L7.45515 5.50802C7.29086 5.62739 7.22211 5.83897 7.28487 6.0321L8.0809 8.48205C8.22122 8.91391 7.72694 9.27303 7.35957 9.00613L5.27552 7.49198C5.11123 7.37261 4.88877 7.37261 4.72448 7.49198L2.64043 9.00612C2.27306 9.27303 1.77877 8.91391 1.9191 8.48205L2.71513 6.0321C2.77788 5.83897 2.70914 5.62739 2.54485 5.50802L0.460801 3.99388C0.0934355 3.72697 0.282236 3.1459 0.736325 3.1459H3.31235C3.51542 3.1459 3.6954 3.01514 3.75816 2.822L4.55419 0.372056Z"/>
</svg>

<svg width="10" height="10" xmlns="http://www.w3.org/2000/svg"><path fill="var(--fill-color1)" d="M4.554.372a.469.469 0 0 1 .892 0l.796 2.45a.469.469 0 0 0 .446.324h2.576c.454 0 .643.581.275.848L7.455 5.508a.469.469 0 0 0-.17.524l.796 2.45a.469.469 0 0 1-.721.524L5.276 7.492a.469.469 0 0 0-.552 0L2.64 9.006a.469.469 0 0 1-.72-.524l.795-2.45a.469.469 0 0 0-.17-.524L.46 3.994a.469.469 0 0 1 .275-.848h2.576c.203 0 .383-.13.446-.324l.796-2.45Z"/></svg>
